src/assets/discord.svg

<?xml version="1.0" encoding="utf-8"?><!-- Uploaded to: SVG Repo, www.svgrepo.com, Generator: SVG Repo Mixer Tools -->
<svg width="800px" height="800px" viewBox="0 0 24 24" xmlns="http://www.w3.org/2000/svg" fill="#000000">
<path d="M18.8943 4.34399C17.5183 3.71467 16.057 3.256 14.5317 3C14.3396 3.33067 14.1263 3.77866 13.977 4.13067C12.3546 3.89599 10.7439 3.89599 9.14391 4.13067C8.99457 3.77866 8.77056 3.33067 8.58922 3C7.05325 3.256 5.59191 3.71467 4.22552 4.34399C1.46286 8.41865 0.716188 12.3973 1.08952 16.3226C2.92418 17.6559 4.69486 18.4666 6.4346 19C6.86126 18.424 7.24527 17.8053 7.57594 17.1546C6.9466 16.92 6.34927 16.632 5.77327 16.2906C5.9226 16.184 6.07194 16.0667 6.21061 15.9493C9.68793 17.5387 13.4543 17.5387 16.889 15.9493C17.0383 16.0667 17.177 16.184 17.3263 16.2906C16.7503 16.632 16.153 16.92 15.5236 17.1546C15.8543 17.8053 16.2383 18.424 16.665 19C18.4036 18.4666 20.185 17.6559 22.01 16.3226C22.4687 11.7787 21.2836 7.83202 18.8943 4.34399ZM8.05593 13.9013C7.01058 13.9013 6.15725 12.952 6.15725 11.7893C6.15725 10.6267 6.98925 9.67731 8.05593 9.67731C9.11191 9.67731 9.97588 10.6267 9.95454 11.7893C9.95454 12.952 9.11191 13.9013 8.05593 13.9013ZM15.065 13.9013C14.0196 13.9013 13.1652 12.952 13.1652 11.7893C13.1652 10.6267 13.9983 9.67731 15.065 9.67731C16.121 9.67731 16.985 10.6267 16.9636 11.7893C16.9636 12.952 16.1317 13.9013 15.065 13.9013Z" stroke-linejoin="round"/>
</svg>

<svg xmlns="http://www.w3.org/2000/svg" width="800" height="800" viewBox="0 0 24 24"><path d="M18.894 4.344A17.4 17.4 0 0 0 14.532 3c-.192.33-.406.779-.555 1.13a16.7 16.7 0 0 0-4.833 0c-.15-.351-.373-.8-.555-1.13a17.2 17.2 0 0 0-4.363 1.344C1.463 8.419.716 12.397 1.09 16.323A17.8 17.8 0 0 0 6.435 19a13 13 0 0 0 1.14-1.845 11 11 0 0 1-1.802-.864 7 7 0 0 0 .438-.342c3.477 1.59 7.243 1.59 10.678 0 .15.118.288.235.437.342a11 11 0 0 1-1.802.864A13 13 0 0 0 16.665 19a17.7 17.7 0 0 0 5.345-2.677c.459-4.544-.726-8.491-3.116-11.979M8.056 13.901c-1.045 0-1.899-.949-1.899-2.112 0-1.162.832-2.112 1.899-2.112 1.056 0 1.92.95 1.899 2.112 0 1.163-.843 2.112-1.9 2.112m7.009 0c-1.045 0-1.9-.949-1.9-2.112 0-1.162.833-2.112 1.9-2.112 1.056 0 1.92.95 1.899 2.112 0 1.163-.832 2.112-1.899 2.112"/></svg>
